X: 10
T: The Primrose Lasses
R: reel
M: 4/4
L: 1/8
K: Amaj
c3 B BAFA| EFAB cB B2| fc c/c/c BcAF| EFAB cAAB:|
c3 f feae| feae fede| B c2 f feae| ffBd cAAB|
ce e/e/e feae|f2 fa fece| agfe f2 af|ecBd cAAB|]


Tune 789	Setting 13929

